X:193
T:Trip to Bath. JJo8193, A
%%VWML:JohnsonVol8-2184-p97-0
F:http://www.vwml.org/record/JohnsonVol8/2184/p97
Z:Transcribed by Simon Furey and Lewis Jones
Z:vmp.Simon Wilson 2013 www.village-music-project.org.uk
Z:Dance added by John Chambers 2017
M:2/4
L:1/8
%Q:1/2=90
K:G
d |\
BGGA | B3c | dgdB | ceAc |\
BGGA | Bdbg | fde^c | d3 ::\
d |\
dBdB | ceAB | BdGB | AFFD |
dBdB | ecTc2 | fdef | g3d |\
BGGA | B3d | dgdB | ceAc |\
BGGA | Bdge | dBcA | G3 :|
W: The 1st Man set across and turn .| then
W:his Partner do the same ..| cast off two
W:Cu. lead up to the Top and cast off .|
W:hands four round at Bottom & Right
W:and Left at Top ..|
W:
T:Miss Townsend's Delight. JJo8.194
B:J.Johnson Choice Collection Vol 8 1758
Z:vmp.Simon Wilson 2013 www.village-music-project.org.uk
Z:Dance added by John Chambers 2017
M:6/8
L:1/8
%Q:3/8=100
K:Dm
a/g/ |\
(fed) ^cde | (d^c)d- d2d | ede- efg | f>ed zc'b |\
(agf) (efg) | fef- f2(g/a//b//) | agf cfe | Tf>ef f2 :|
|: a |\
a>ga Ffa | g>fg Eeg | (fe)d (bg)e | d3 ^c2A |\
=B^cd efg | fd^g a2=g | fed A=B^c | d3 D2 :|
W: The 1st Cu. set to the 2d Wo. and hands
W:the round .| the same with the 2d Man ..|
W:cross over half figure .| and Right and
W:Left ..| set contrary Corners and turn ..|
W:and gallop out Sides and turn ..|
W:
